X: 1
T: Michael Hynes'
M: 4/4
L: 1/8
R: reel
D: Teada - Teada
K: Fmaj
AF~F2 AFcF|AFFG AGGc|AF~F2 AFcF|AdcA ~G3c:|
Accd cAAG|FGAG GFFA|cGAd cAAG|FGAF ~G3c|
Accd cAAG|~F3F GFFA|cGAd dcAG|FGAF ~G3c||
